packages/tokens/icons/dollars/size24Px.svg

<svg viewBox="0 0 24 24" fill="none" xmlns="http://www.w3.org/2000/svg" width="1em" height="1em"><path d="M18 8.85V8.5V8.5C18 6.567 16.433 5 14.5 5L9.5 5C7.567 5 6 6.567 6 8.5V8.5C6 10.433 7.567 12 9.5 12H14.5C16.433 12 18 13.567 18 15.5V15.5C18 17.433 16.433 19 14.5 19H9.5C7.567 19 6 17.433 6 15.5V15.5V14.8" stroke="currentColor" stroke-linecap="round"/><path d="M12 2L12 22" stroke="currentColor" stroke-linecap="round"/></svg>

<svg xmlns="http://www.w3.org/2000/svg" fill="none" viewBox="0 0 24 24" width="1em" height="1em"><path stroke="currentColor" stroke-linecap="round" d="M18 8.85V8.5v0A3.5 3.5 0 0 0 14.5 5h-5A3.5 3.5 0 0 0 6 8.5v0A3.5 3.5 0 0 0 9.5 12h5a3.5 3.5 0 0 1 3.5 3.5v0a3.5 3.5 0 0 1-3.5 3.5h-5A3.5 3.5 0 0 1 6 15.5v0-.7M12 2v20"/></svg>
